!!!OTL: Wannian baishu qianniansong
!!!ARE: Asia, China,ÿGuangdong Lianxian
!! II, 347
!!!SCT: C1880
!!!YEM: Copyright 1995, estate of Helmut Schaffrath.
**kern
*ICvox
*Ivox
*M2/4
*k[f#]
*G:
{8gg
16gg
16aa
8ee
8gg
=1
8gg
8gg
8gg
16gg
16ee
=2
8.aa
16bb
16aa
16gg
8ee
=3
4gg
4ee}
=4
{8aa
8aa
8aa
16gg
16aa
=5
8gg
8aa
4gg}
=6
{8gg
8ee
4dd
=7
8.cc
16dd
8gg
8gg
=8
16ee
16dd
8ee
4dd}
==
!!!AGN: Xiaodiao. Madeng diao
!!!AMT: simple duple
!!!AIN: vox
!!!EED: Helmut Schaffrath
!!!EEV: 1.0
*-
